X:1
T:Ecco il dardo col qual
T:Luca Marenzio
T:Source : Il quinto libro delle Villanelle a tre voci---Venetia---Herede di G.Scotto---1587. Editor : André Vierendeels (07/05/17).
T:Notes : Original clefs : G2, C1, F3 Editorial accidentals above the staff Music collected by Attilio Gualtieri m 14 :  in S 1 : original "C sharp". Editorial suggestion : "B"
T:Ecco il dardo col qual
T:©
T:©
C:Luca Marenzio
Z:©
%%score [ 1 2 3 ]
L:1/8
Q:1/4=120
M:4/4
K:C
V:1 treble nm="Soprano 1" snm="S 1"
V:2 treble nm="Soprano 2" snm="S 2"
V:3 treble-8 nm="Tenor" snm="T"
V:1
"^1)" G6 G2 | A4 B4 | c2 c4 c2 | c2 B2 A4 | G8 :: z2 e2 edcB | A2 d2 dcBA | G2 g2 gfed | %8
w: Ec- co'il|dar- do|col qual mi|pun- se'A- mo-|re,|e spar- * * *|* se'in un _ _ _|_ bel col- * * *|
w: Nel la-|to man-|co'e- gli mi|die- de'il col-|po,|a voi'il _ _ _|_ di- mo- * * *|* stro'a- man- * * *|
 c2 e2 f2 f2 | e8 | d8 | d2 d4 c2 | B4 B4 | B8 | d4 g4- | g2 e2 d4 | c8 :| %17
w: * l'il pu- ro|san-|gue,|che di pie-|ta- de|_|ma s'a-|* pr'e lan-|gue.-|
w: * t'i- ni- qua|sor-|te,|per se- gno'è|ve- ri-||del- la|_ mia mor-|te.|
V:2
"^2)""^1)" E6 G2 | ^F4 G4 | A2 A4 G2 | A2 G2 ^F4 | G8 :: z2 c2 cBAG | ^F4 G4 | E2 c2 BAGF | %8
w: Ec- co'il|dar- do|col qual mi|pun- se'A- mo-|re,|e spar- * * *|* se'in|un bel col- * * *|
w: E que-|sto'è'A- mor|che fu ver|me cru- de-|le,|chie- den- * * *|* do'a|lui mer- cè _ _ _|
 E2 c2 A2 d2- | d2 ^cB c4 | d8 | B2 B4 A2 | ^G4 G4 | ^G8 | A2 B4 c2 | B2 c4 B2 | c8 :| %17
w: * le'il pu- ro|_ _ _ san-|gue,|che di pie-|ta- de|tre-|ma s'ap- r'e|lan- * *|gue.|
w: _ per- che mi|_ _ _ to-|gli.|vi- ta s'io|chieg- gio'in|tua|gra- ia mi|vo- * *|gli.|
V:3
"^3)""^1)""^4)" c6 B2 | A4 G4 |"^-natural" F2 F4 E2 | F2 G2 D4 | G8 :: c4 A4 | d4 G4 | c4 G4 | %8
w: Ec- co'il|dar- do|col qual mi|pun- se'A- mo-|re,|e spar-|se'in un|bel col-|
w: Non sa-|tio'an- cor|l'al- ma vol-|se ve- de-|re,|da que-|sto cor-|po fuor|
 A4 F2 D2 | A8 | D8 | G2 G4 A2 | E4 E4 | E8 | D2 G4 C2 | G8 | C8 :| %17
w: le'il pu- ro|san-|gue,|che di pie-|ta- de|tre-|ma s'a- pr'e|lan-|gue.|
w: in ter- ra|las-|so,|per di- mo-|strar ch'ha-|ve'a'l|suo cor di|sas-|so.|

